raw/symbols/flow.svg

<svg width="42" height="42" viewBox="0 0 42 42" fill="none" xmlns="http://www.w3.org/2000/svg">
<path d="M21 41C32.0457 41 41 32.0457 41 21C41 9.9543 32.0457 1 21 1C9.9543 1 1 9.9543 1 21C1 32.0457 9.9543 41 21 41Z" fill="#00EF8B"/>
<path d="M32.5006 14V8.5H25C24.3333 8.5 22.5 8.5 20.5 10.5C18.5 12.5 18.3334 15.8333 18.5 17H24C24 16.6667 23.8682 15.8846 24.5 15C25.1318 14.1154 26.0716 14 26.6075 14H32.5006Z" fill="#F3F3F3"/>
<rect x="24" y="17" width="5.5" height="5.5" fill="#F3F3F3"/>
<path fill-rule="evenodd" clip-rule="evenodd" d="M24 24.7507C24 29.0309 20.5302 32.5007 16.25 32.5007C11.9698 32.5007 8.5 29.0309 8.5 24.7507C8.5 20.4705 11.9698 17.0007 16.25 17.0007C16.794 17.0007 17.6049 17.0005 18.5 17.0002V22.5C18.4799 22.5 16.9085 22.5007 16.3502 22.5007C15.1628 22.5007 14.2002 23.4632 14.2002 24.6504C14.2002 25.8376 15.1628 26.8 16.3502 26.8C17.5376 26.8 18.5002 25.8376 18.5002 24.6504V22.5H24V24.7507ZM24 17V16.998C24 16.998 21.5134 16.9992 19.2381 17H24Z" fill="#F3F3F3"/>
</svg>

<svg xmlns="http://www.w3.org/2000/svg" width="42" height="42" fill="none"><path fill="#00EF8B" d="M21 41c11.046 0 20-8.954 20-20S32.046 1 21 1 1 9.954 1 21s8.954 20 20 20Z"/><path fill="#F3F3F3" d="M32.5 14V8.5H25c-.667 0-2.5 0-4.5 2s-2.167 5.333-2 6.5H24c0-.333-.132-1.115.5-2s1.572-1 2.108-1H32.5ZM24 17h5.5v5.5H24z"/><path fill="#F3F3F3" fill-rule="evenodd" d="M24 24.75A7.75 7.75 0 1 1 16.25 17h2.25v5.5h-2.15a2.15 2.15 0 1 0 2.15 2.15V22.5H24v2.25ZM24 17v-.002L19.238 17H24Z" clip-rule="evenodd"/></svg>
